dist/img/mg3.svg

<svg width="184" height="116" viewBox="0 0 184 116" fill="none" xmlns="http://www.w3.org/2000/svg">
<g filter="url(#filter0_d_955_40018)">
<path fill-rule="evenodd" clip-rule="evenodd" d="M163.033 100.533C163.033 102.739 161.243 104.52 159.042 104.52H24.8455C22.6444 104.52 20.8555 102.739 20.8555 100.533V4.98768C20.8555 2.78178 22.6444 1 24.8455 1H159.042C161.243 1 163.033 2.78178 163.033 4.98768V100.533Z" fill="white"/>
<path fill-rule="evenodd" clip-rule="evenodd" d="M27.4219 95.5597H156.645V7.96948H27.4219V95.5597Z" fill="#191551"/>
<mask id="mask0_955_40018" style="mask-type:alpha" maskUnits="userSpaceOnUse" x="3" y="101" width="178" height="10">
<path fill-rule="evenodd" clip-rule="evenodd" d="M3 101.531H180.89V110.491H3V101.531Z" fill="white"/>
</mask>
<g mask="url(#mask0_955_40018)">
<path fill-rule="evenodd" clip-rule="evenodd" d="M3 101.531C3.5303 106.544 8.79888 110.491 15.282 110.491H168.606C175.093 110.491 180.358 106.544 180.891 101.531H3Z" fill="#EFEFEF"/>
</g>
<path fill-rule="evenodd" clip-rule="evenodd" d="M68.4961 104.52H115.397V101.53H68.4961V104.52Z" fill="#CCCCCC"/>
<circle cx="67.5" cy="51.5" r="26.5" fill="#0A0925"/>
<path d="M60.3454 58.3107L60.1059 59C53.0632 56.4892 49.3023 48.612 51.7457 41.3502C54.1891 34.0885 61.8546 30.273 68.8972 32.7592C74.2631 34.6546 77.9042 39.7994 78 45.6334H77.2574C76.1794 39.0856 70.1429 34.7039 63.7709 35.8116C57.399 36.9193 53.1351 43.1472 54.237 49.6951C54.8359 53.3875 57.1116 56.563 60.3454 58.3107Z" fill="url(#paint0_linear_955_40018)"/>
<path d="M76.6287 32.5705L76.877 32C87.3803 36.9111 91.9243 49.3874 87.0327 59.8794C82.1411 70.3714 69.6265 74.9352 59.1232 70.0241C51.1277 66.3035 46.3106 57.9695 47.0803 49.189L47.7508 49.2634C48.297 59.5817 57.1119 67.4693 67.4414 66.9236C77.7709 66.378 85.667 57.5726 85.1208 47.2543C84.798 41.2766 81.6445 35.8446 76.6287 32.5705Z" fill="url(#paint1_linear_955_40018)"/>
<circle cx="110.5" cy="51.5" r="26.5" fill="white"/>
<path fill-rule="evenodd" clip-rule="evenodd" d="M108.488 32C113.445 32.0131 117.571 34.7261 119.455 38.9649C119.963 40.1091 120.294 41.3384 120.438 42.6155C120.546 43.5744 120.563 44.2071 120.5 45.1013C120.197 49.4358 117.907 53.2263 114.303 55.9219C114.28 55.9392 114.283 55.9721 114.308 55.9861C114.412 56.0431 114.515 56.1001 114.618 56.1578C117.152 57.5722 119.204 59.0484 120.78 60.7294C120.889 60.8454 120.995 60.9625 121.099 61.0799C121.116 61.0994 121.147 61.0992 121.164 61.0799C121.266 60.9613 121.371 60.8434 121.479 60.7265C123.038 59.0317 125.075 57.538 127.595 56.1015C128.531 55.5679 129.496 55.0629 130.601 54.5181C130.769 54.4352 130.972 54.5484 130.973 54.7255L131 60.2277C131.001 60.3259 130.935 60.4144 130.837 60.4491C126.952 61.8127 124.183 65.2749 124.037 67.7556C124.03 67.88 123.919 67.977 123.785 67.9775L118.581 68C118.428 68.0005 118.3 67.8906 118.289 67.7482C118.115 65.3367 115.862 62.9874 111.712 60.6705C110.892 60.2133 110.032 59.7718 109.034 59.2902C109.027 59.2868 109.02 59.2831 109.013 59.2797C107.49 58.5011 105.225 57.6776 102.352 55.6187C98.9886 52.9791 96.8436 49.3486 96.5128 45.205C96.4417 44.3113 96.4518 43.6785 96.5501 42.7186C96.6811 41.4403 97.0003 40.2082 97.4971 39.0596C99.3379 34.8045 103.437 32.0565 108.393 32.0007L108.417 32.0001L108.488 32ZM100.827 58.4805C102.017 59.3628 103.506 60.1896 105.296 60.9616C105.563 61.0767 105.587 61.3991 105.339 61.543C101.848 63.57 99.956 65.5876 99.7988 67.6663C99.7855 67.8424 99.6169 67.979 99.4143 67.9801L94.3895 68C94.1709 68.0008 93.9935 67.8449 94.0002 67.6552C94.0833 65.2409 95.2126 63.0358 97.1727 61.0487C98.0727 60.1365 99.1279 59.2851 100.34 58.4703C100.484 58.3729 100.688 58.3771 100.827 58.4805ZM108.467 37.262C105.844 37.29 103.748 38.6951 102.74 41.0253C102.448 41.701 102.257 42.439 102.177 43.2182C102.108 43.8903 102.103 44.2263 102.15 44.8148C102.432 48.3555 104.799 51.3677 108.518 53.152C108.521 53.1529 108.524 53.1545 108.527 53.1559C108.539 53.1617 108.554 53.1619 108.566 53.1558C108.569 53.1543 108.572 53.1528 108.575 53.1516C112.275 51.3355 114.612 48.3033 114.86 44.7603C114.901 44.171 114.892 43.8348 114.816 43.1636C114.729 42.3853 114.531 41.6488 114.231 40.9757C113.2 38.6544 111.091 37.2671 108.467 37.262Z" fill="#005FF9"/>
</g>
<defs>
<filter id="filter0_d_955_40018" x="0" y="0" width="183.891" height="115.491" filterUnits="userSpaceOnUse" color-interpolation-filters="sRGB">
<feFlood flood-opacity="0" result="BackgroundImageFix"/>
<feColorMatrix in="SourceAlpha" type="matrix" values="0 0 0 0 0 0 0 0 0 0 0 0 0 0 0 0 0 0 127 0" result="hardAlpha"/>
<feOffset dy="2"/>
<feGaussianBlur stdDeviation="1.5"/>
<feColorMatrix type="matrix" values="0 0 0 0 0 0 0 0 0 0 0 0 0 0 0 0 0 0 0.15 0"/>
<feBlend mode="normal" in2="BackgroundImageFix" result="effect1_dropShadow_955_40018"/>
<feBlend mode="normal" in="SourceGraphic" in2="effect1_dropShadow_955_40018" result="shape"/>
</filter>
<linearGradient id="paint0_linear_955_40018" x1="64.5051" y1="31.9913" x2="64.5051" y2="58.9865" gradientUnits="userSpaceOnUse">
<stop stop-color="#7A5FFF"/>
<stop offset="0.609375" stop-color="#927FF1"/>
<stop offset="1" stop-color="#01FF89"/>
</linearGradient>
<linearGradient id="paint1_linear_955_40018" x1="67.9995" y1="32.023" x2="67.9995" y2="72.0081" gradientUnits="userSpaceOnUse">
<stop stop-color="#7A5FFF"/>
<stop offset="1" stop-color="#01FF89"/>
</linearGradient>
</defs>
</svg>

<svg width="184" height="116" fill="none" xmlns="http://www.w3.org/2000/svg"><g filter="url(#filter0_d_955_40018)"><path fill-rule="evenodd" clip-rule="evenodd" d="M163.033 100.533a3.988 3.988 0 01-3.991 3.987H24.845a3.988 3.988 0 01-3.99-3.987V4.988A3.988 3.988 0 0124.846 1h134.197a3.99 3.99 0 013.991 3.988v95.545z" fill="#fff"/><path fill-rule="evenodd" clip-rule="evenodd" d="M27.422 95.56h129.223V7.97H27.422v87.59z" fill="#191551"/><mask id="mask0_955_40018" style="mask-type:alpha" maskUnits="userSpaceOnUse" x="3" y="101" width="178" height="10"><path fill-rule="evenodd" clip-rule="evenodd" d="M3 101.531h177.89v8.96H3v-8.96z" fill="#fff"/></mask><g mask="url(#mask0_955_40018)"><path fill-rule="evenodd" clip-rule="evenodd" d="M3 101.531c.53 5.013 5.799 8.96 12.282 8.96h153.324c6.487 0 11.752-3.947 12.285-8.96H3z" fill="#EFEFEF"/></g><path fill-rule="evenodd" clip-rule="evenodd" d="M68.496 104.52h46.901v-2.99h-46.9v2.99z" fill="#CCC"/><circle cx="67.5" cy="51.5" r="26.5" fill="#0A0925"/><path d="M60.345 58.31l-.24.69c-7.042-2.51-10.803-10.388-8.36-17.65 2.444-7.261 10.11-11.077 17.152-8.59 5.366 1.895 9.007 7.04 9.103 12.873h-.743c-1.078-6.547-7.114-10.93-13.486-9.821-6.372 1.107-10.636 7.335-9.534 13.883a11.97 11.97 0 006.108 8.616z" fill="url(#paint0_linear_955_40018)"/><path d="M76.629 32.57l.248-.57c10.503 4.911 15.047 17.387 10.156 27.88-4.892 10.491-17.407 15.055-27.91 10.144A20.972 20.972 0 0147.08 49.19l.67.074c.547 10.319 9.362 18.206 19.691 17.66 10.33-.545 18.226-9.35 17.68-19.669a18.724 18.724 0 00-8.492-14.683z" fill="url(#paint1_linear_955_40018)"/><circle cx="110.5" cy="51.5" r="26.5" fill="#fff"/><path fill-rule="evenodd" clip-rule="evenodd" d="M108.488 32c4.957.013 9.083 2.726 10.967 6.965.508 1.144.839 2.373.983 3.65.108.96.125 1.592.062 2.486-.303 4.335-2.593 8.125-6.197 10.82a.038.038 0 00.005.065l.31.172c2.534 1.414 4.586 2.89 6.162 4.571.109.116.215.233.319.35.017.02.048.02.065 0 .102-.118.207-.236.315-.352 1.559-1.695 3.596-3.189 6.116-4.625a55.832 55.832 0 013.006-1.584c.168-.083.371.03.372.207l.027 5.503a.237.237 0 01-.163.221c-3.885 1.364-6.654 4.826-6.8 7.307-.007.124-.118.221-.252.222l-5.204.022c-.153 0-.281-.11-.292-.252-.174-2.411-2.427-4.76-6.577-7.078-.82-.457-1.68-.898-2.678-1.38l-.021-.01c-1.523-.779-3.788-1.602-6.661-3.661-3.363-2.64-5.508-6.27-5.84-10.414a12.267 12.267 0 01.038-2.486c.131-1.279.45-2.51.947-3.66 1.84-4.255 5.94-7.002 10.896-7.058h.024l.071-.001zm-7.661 26.48c1.19.883 2.679 1.71 4.469 2.482.267.115.291.437.043.581-3.491 2.027-5.383 4.045-5.54 6.123-.014.176-.182.313-.385.314L94.39 68c-.218 0-.395-.155-.389-.345.083-2.414 1.213-4.62 3.173-6.606.9-.913 1.955-1.764 3.167-2.579a.431.431 0 01.487.01zm7.64-21.218c-2.623.028-4.719 1.433-5.727 3.763a7.436 7.436 0 00-.563 2.193c-.069.672-.074 1.008-.027 1.597.282 3.54 2.649 6.553 6.368 8.337.003 0 .006.002.009.004a.045.045 0 00.039 0l.009-.004c3.7-1.816 6.037-4.849 6.285-8.392.041-.589.032-.925-.044-1.596a7.381 7.381 0 00-.585-2.188c-1.031-2.322-3.14-3.709-5.764-3.714z" fill="#005FF9"/></g><defs><linearGradient id="paint0_linear_955_40018" x1="64.505" y1="31.991" x2="64.505" y2="58.986" gradientUnits="userSpaceOnUse"><stop stop-color="#7A5FFF"/><stop offset=".609" stop-color="#927FF1"/><stop offset="1" stop-color="#01FF89"/></linearGradient><linearGradient id="paint1_linear_955_40018" x1="67.999" y1="32.023" x2="67.999" y2="72.008" gradientUnits="userSpaceOnUse"><stop stop-color="#7A5FFF"/><stop offset="1" stop-color="#01FF89"/></linearGradient><filter id="filter0_d_955_40018" x="0" y="0" width="183.891" height="115.491" filterUnits="userSpaceOnUse" color-interpolation-filters="sRGB"><feFlood flood-opacity="0" result="BackgroundImageFix"/><feColorMatrix in="SourceAlpha" values="0 0 0 0 0 0 0 0 0 0 0 0 0 0 0 0 0 0 127 0" result="hardAlpha"/><feOffset dy="2"/><feGaussianBlur stdDeviation="1.5"/><feColorMatrix values="0 0 0 0 0 0 0 0 0 0 0 0 0 0 0 0 0 0 0.15 0"/><feBlend in2="BackgroundImageFix" result="effect1_dropShadow_955_40018"/><feBlend in="SourceGraphic" in2="effect1_dropShadow_955_40018" result="shape"/></filter></defs></svg>
